src/assets/icons/button-icons/copy.svg

<?xml version="1.0" encoding="UTF-8" standalone="no"?>
<svg
   xmlns:dc="http://purl.org/dc/elements/1.1/"
   xmlns:cc="http://creativecommons.org/ns#"
   xmlns:rdf="http://www.w3.org/1999/02/22-rdf-syntax-ns#"
   xmlns:svg="http://www.w3.org/2000/svg"
   xmlns="http://www.w3.org/2000/svg"
   xmlns:sodipodi="http://sodipodi.sourceforge.net/DTD/sodipodi-0.dtd"
   xmlns:inkscape="http://www.inkscape.org/namespaces/inkscape"
   height="24px"
   viewBox="0 0 24 24"
   width="24px"
   fill="#000000"
   version="1.1"
   id="svg6"
   sodipodi:docname="copy.svg"
   inkscape:version="1.0.2 (e86c870879, 2021-01-15)">
  <metadata
     id="metadata12">
    <rdf:RDF>
      <cc:Work
         rdf:about="">
        <dc:format>image/svg+xml</dc:format>
        <dc:type
           rdf:resource="http://purl.org/dc/dcmitype/StillImage" />
      </cc:Work>
    </rdf:RDF>
  </metadata>
  <defs
     id="defs10" />
  <sodipodi:namedview
     pagecolor="#ffffff"
     bordercolor="#666666"
     borderopacity="1"
     objecttolerance="10"
     gridtolerance="10"
     guidetolerance="10"
     inkscape:pageopacity="0"
     inkscape:pageshadow="2"
     inkscape:window-width="1885"
     inkscape:window-height="1056"
     id="namedview8"
     showgrid="false"
     inkscape:zoom="29.791667"
     inkscape:cx="12"
     inkscape:cy="12"
     inkscape:window-x="35"
     inkscape:window-y="0"
     inkscape:window-maximized="1"
     inkscape:current-layer="svg6" />
  <path
     d="M0 0h24v24H0V0z"
     fill="none"
     id="path2" />
  <path
     d="M 16.405063,1.1264416 H 5.0477659 c -1.0410858,0 -1.8928831,0.8517974 -1.8928831,1.8928831 V 16.269507 H 5.0477659 V 3.0193247 H 16.405063 Z m 2.839325,3.7857662 H 8.8335321 c -1.0410858,0 -1.8928831,0.8517974 -1.8928831,1.8928831 V 20.055273 c 0,1.041086 0.8517973,1.892883 1.8928831,1.892883 H 19.244388 c 1.041086,0 1.892883,-0.851797 1.892883,-1.892883 V 6.8050909 c 0,-1.0410857 -0.851797,-1.8928831 -1.892883,-1.8928831 z m 0,15.1430652 H 8.8335321 V 6.8050909 H 19.244388 Z"
     id="path4"
     style="stroke-width:0.946442" />
</svg>

<?xml version="1.0" encoding="UTF-8"?>
<svg width="24px" height="24px" fill="#000000" version="1.1" viewBox="0 0 24 24" xmlns="http://www.w3.org/2000/svg" >
 <path d="M0 0h24v24H0V0z" fill="none"/>
 <path d="m16.405 1.1264h-11.357c-1.0411 0-1.8929 0.8518-1.8929 1.8929v13.25h1.8929v-13.25h11.357zm2.8393 3.7858h-10.411c-1.0411 0-1.8929 0.8518-1.8929 1.8929v13.25c0 1.0411 0.8518 1.8929 1.8929 1.8929h10.411c1.0411 0 1.8929-0.8518 1.8929-1.8929v-13.25c0-1.0411-0.8518-1.8929-1.8929-1.8929zm0 15.143h-10.411v-13.25h10.411z" stroke-width=".94644"/>
</svg>
